X: 20442
Q: "Moderato"
U: p=!crescendo(!
U: P=!crescendo)!
U: Q=!diminuendo(!
U: q=!diminuendo)!
M: 6/8
L: 1/8
K: G
[|\
QddqB d2B | d2B A2A | (GBA) B>cd | e2d B2A |\
fdA d2e | f2"_dim:"Te d2z | QddqB "_>"d2B | "_sf"d2B A2A |\


